public/middleclick.svg

<?xml version="1.0" encoding="utf-8"?>
<svg viewBox="0 0 32 32" xmlns="http://www.w3.org/2000/svg">
  <g id="icomoon-ignore"/>
  <path stroke-width="0" d="M 16.966 9.32 C 17.102 9.295 17.246 9.285 17.39 9.32 C 17.549 9.359 17.707 9.518 17.875 9.563 C 18.04 9.607 18.157 9.537 18.39 9.593 C 18.772 9.684 19.573 10.013 20.027 10.23 C 20.402 10.409 20.731 10.597 20.967 10.775 C 21.15 10.914 21.237 10.978 21.376 11.185 C 21.578 11.485 21.784 12.227 21.998 12.533 C 22.151 12.753 22.324 12.814 22.467 12.973 C 22.612 13.132 22.747 13.279 22.861 13.488 C 22.995 13.731 23.102 13.957 23.195 14.367 C 23.338 14.994 23.598 16.52 23.498 17.065 C 23.44 17.382 23.267 17.521 23.119 17.656 C 22.993 17.772 22.92 17.823 22.695 17.868 C 22.294 17.949 21.482 17.9 20.694 17.868 C 19.703 17.828 17.855 17.783 17.148 17.596 C 16.749 17.49 16.564 17.346 16.405 17.186 C 16.33 17.111 16.29 17.068 16.257 16.99 C 16.147 17.293 15.994 17.441 15.844 17.596 C 15.69 17.754 15.649 17.804 15.329 17.868 C 14.611 18.013 11.964 17.98 10.934 17.899 C 10.267 17.846 9.876 17.791 9.479 17.626 C 9.136 17.484 8.831 17.251 8.645 17.035 C 8.491 16.856 8.42 16.679 8.372 16.459 C 8.318 16.212 8.365 15.848 8.372 15.61 C 8.378 15.42 8.354 15.329 8.402 15.125 C 8.473 14.829 8.648 14.348 8.857 13.973 C 9.08 13.574 9.472 13.072 9.721 12.806 C 9.897 12.619 10.057 12.615 10.191 12.427 C 10.359 12.191 10.382 11.779 10.585 11.427 C 10.83 11.004 11.283 10.355 11.631 10.078 C 11.894 9.868 12.087 9.821 12.419 9.745 C 12.849 9.646 13.675 9.72 14.056 9.623 C 14.312 9.558 14.412 9.39 14.601 9.351 C 14.786 9.312 15.003 9.322 15.177 9.381 C 15.351 9.439 15.501 9.558 15.647 9.699 C 15.797 9.842 15.965 10.06 16.071 10.248 C 16.071 10.247 16.072 10.246 16.072 10.245 C 16.171 9.948 16.398 9.621 16.572 9.472 C 16.699 9.363 16.829 9.346 16.966 9.32 Z" style="stroke-width: 2px; fill: rgb(200, 61, 30);"/>
  <path d="M 16.533 8.562 L 15.467 8.561 C 11.3 8.829 8.003 12.187 8.003 16.3 L 8.003 24.227 C 8.003 28.515 11.583 31.992 16 31.992 C 20.417 31.992 23.997 28.515 23.997 24.227 L 23.997 16.3 C 23.997 12.186 20.7 8.828 16.533 8.561 L 16.533 8.562 Z M 22.931 16.301 L 22.931 17.066 L 16.533 17.066 L 16.533 9.628 C 20.105 9.893 22.931 12.781 22.931 16.301 Z M 9.069 16.301 C 9.069 12.781 11.894 9.893 15.467 9.628 L 15.467 17.066 L 9.069 17.066 L 9.069 16.301 Z M 16 30.927 C 12.179 30.927 9.069 27.922 9.069 24.228 L 9.069 18.132 L 22.93 18.132 L 22.93 24.228 C 22.93 27.922 19.821 30.927 15.999 30.927 L 16 30.927 Z" style=""/>
  <path d="M 14.753 8.684 C 14.928 8.662 15.19 8.679 15.359 8.744 C 15.512 8.803 15.64 8.914 15.738 9.032 C 15.837 9.151 15.905 9.229 15.95 9.457 C 16.033 9.87 15.909 10.906 15.95 11.548 C 15.987 12.128 16.126 12.585 16.162 13.155 C 16.202 13.771 16.213 14.506 16.162 15.125 C 16.115 15.703 16.032 16.373 15.89 16.762 C 15.789 17.038 15.658 17.218 15.511 17.353 C 15.385 17.469 15.234 17.53 15.086 17.565 C 14.941 17.6 14.774 17.596 14.632 17.565 C 14.492 17.535 14.402 17.41 14.238 17.383 C 14.029 17.349 13.68 17.454 13.449 17.444 C 13.254 17.436 13.172 17.336 12.934 17.353 C 12.551 17.381 11.807 17.734 11.267 17.808 C 10.758 17.877 10.164 17.87 9.782 17.808 C 9.497 17.761 9.309 17.674 9.115 17.565 C 8.933 17.463 8.76 17.328 8.645 17.186 C 8.54 17.058 8.473 16.944 8.433 16.762 C 8.381 16.526 8.367 16.278 8.433 15.853 C 8.543 15.143 9.005 13.463 9.312 12.7 C 9.527 12.164 9.771 11.807 9.979 11.518 C 10.133 11.304 10.194 11.233 10.418 11.048 C 10.766 10.762 11.44 10.264 12.025 9.987 C 12.624 9.704 13.605 9.634 13.98 9.381 C 14.219 9.22 14.216 8.951 14.359 8.835 C 14.478 8.739 14.602 8.703 14.753 8.684 Z" style="stroke-width: 2px; paint-order: fill markers; fill: none;" stroke-width="0"/>
</svg>

<svg xmlns="http://www.w3.org/2000/svg" xmlns:svg="http://www.w3.org/2000/svg" viewBox="8 8.56 16 23.43">
 <g class="layer">
  <title>Layer 1</title>
  <g id="icomoon-ignore"/>
  <path d="m16.97,9.32c0.13,-0.03 0.28,-0.03 0.42,0c0.16,0.04 0.32,0.2 0.49,0.24c0.16,0.05 0.28,-0.02 0.51,0.03c0.38,0.09 1.18,0.42 1.64,0.64c0.37,0.18 0.7,0.37 0.94,0.55c0.18,0.13 0.27,0.2 0.41,0.41c0.2,0.29 0.4,1.04 0.62,1.34c0.15,0.22 0.32,0.28 0.47,0.44c0.14,0.16 0.28,0.31 0.39,0.52c0.14,0.24 0.24,0.47 0.34,0.88c0.14,0.62 0.4,2.15 0.3,2.7c-0.06,0.31 -0.23,0.45 -0.38,0.59c-0.13,0.11 -0.2,0.16 -0.42,0.21c-0.41,0.08 -1.22,0.03 -2.01,0c-0.99,-0.04 -2.83,-0.09 -3.54,-0.27c-0.4,-0.11 -0.59,-0.25 -0.74,-0.41c-0.08,-0.08 -0.12,-0.12 -0.15,-0.2c-0.11,0.3 -0.27,0.45 -0.42,0.61c-0.15,0.15 -0.19,0.2 -0.51,0.27c-0.72,0.14 -3.37,0.11 -4.4,0.03c-0.66,-0.05 -1.05,-0.11 -1.45,-0.27c-0.34,-0.15 -0.65,-0.38 -0.84,-0.59c-0.15,-0.18 -0.22,-0.36 -0.27,-0.58c-0.05,-0.25 0,-0.61 0,-0.85c0.01,-0.19 -0.02,-0.28 0.03,-0.48c0.07,-0.3 0.25,-0.78 0.46,-1.16c0.22,-0.4 0.61,-0.9 0.86,-1.16c0.18,-0.19 0.34,-0.19 0.47,-0.38c0.17,-0.24 0.19,-0.65 0.4,-1c0.24,-0.43 0.69,-1.07 1.04,-1.35c0.26,-0.21 0.46,-0.26 0.79,-0.34c0.43,-0.09 1.26,-0.02 1.64,-0.12c0.25,-0.06 0.35,-0.23 0.54,-0.27c0.19,-0.04 0.4,-0.03 0.58,0.03c0.17,0.06 0.32,0.18 0.47,0.32c0.15,0.14 0.31,0.36 0.42,0.55c0,0 0,0 0,-0.01c0.1,-0.29 0.33,-0.62 0.5,-0.77c0.13,-0.11 0.26,-0.12 0.4,-0.15z" fill="rgb(200, 61, 30)" id="svg_1" stroke-width="2px"/>
  <path d="m16.53,8.56l-1.06,0c-4.17,0.27 -7.47,3.63 -7.47,7.74l0,7.93c0,4.29 3.58,7.76 8,7.76c4.42,0 8,-3.47 8,-7.76l0,-7.93c0,-4.11 -3.3,-7.47 -7.47,-7.74l0,0zm6.4,7.74l0,0.77l-6.4,0l0,-7.44c3.58,0.26 6.4,3.15 6.4,6.67zm-13.86,0c0,-3.52 2.82,-6.41 6.4,-6.67l0,7.44l-6.4,0l0,-0.77zm6.93,14.63c-3.82,0 -6.93,-3.01 -6.93,-6.7l0,-6.1l13.86,0l0,6.1c0,3.69 -3.11,6.7 -6.93,6.7l0,0z" fill="#ffffff" id="svg_2"/>
  <path d="m14.75,8.68c0.18,-0.02 0.44,0 0.61,0.06c0.15,0.06 0.28,0.17 0.38,0.29c0.1,0.12 0.16,0.2 0.21,0.43c0.08,0.41 -0.04,1.45 0,2.09c0.04,0.58 0.18,1.04 0.21,1.6c0.04,0.62 0.05,1.36 0,1.98c-0.05,0.57 -0.13,1.24 -0.27,1.63c-0.1,0.28 -0.23,0.46 -0.38,0.59c-0.13,0.12 -0.28,0.18 -0.42,0.22c-0.15,0.03 -0.32,0.03 -0.46,0c-0.14,-0.03 -0.23,-0.16 -0.39,-0.19c-0.21,-0.03 -0.56,0.07 -0.79,0.06c-0.2,0 -0.28,-0.1 -0.52,-0.09c-0.38,0.03 -1.12,0.38 -1.66,0.46c-0.51,0.07 -1.11,0.06 -1.49,0c-0.28,-0.05 -0.47,-0.14 -0.66,-0.24c-0.19,-0.11 -0.36,-0.24 -0.48,-0.38c-0.1,-0.13 -0.17,-0.25 -0.21,-0.43c-0.05,-0.23 -0.06,-0.48 0,-0.91c0.11,-0.71 0.58,-2.39 0.88,-3.15c0.22,-0.54 0.46,-0.89 0.67,-1.18c0.15,-0.22 0.21,-0.29 0.44,-0.47c0.35,-0.29 1.02,-0.79 1.61,-1.06c0.59,-0.29 1.58,-0.36 1.95,-0.61c0.24,-0.16 0.24,-0.43 0.38,-0.54c0.12,-0.1 0.24,-0.14 0.39,-0.16z" fill="none" id="svg_3" stroke-width="2px"/>
 </g>
</svg>
